assets/icons/qvision/assistant_direction.svg

<svg xmlns="http://www.w3.org/2000/svg" height="24" viewBox="0 0 24 24" width="24"><path d="M0 0h24v24H0V0z" fill="none"/><title>Asset 1</title><path d="M14 10H9c-.6 0-1 .4-1 1v4h2v-3h4v2.5l3.5-3.5L14 7.5V10zm-2-9C5.9 1 1 5.9 1 12s4.9 11 11 11 11-4.9 11-11S18.1 1 12 1zm7.73 11.58l-7.19 7.22c-.35.27-.79.27-1.15 0L4.2 12.58c-.27-.36-.27-.8 0-1.16l7.19-7.22c.35-.27.79-.27 1.15 0l7.19 7.22c.36.27.36.8 0 1.16z"/></svg>

<svg width="24" height="24" viewBox="0 0 24 24" fill="none" xmlns="http://www.w3.org/2000/svg">
<g clip-path="url(#clip0_147_5748)">
<path d="M14 10H9C8.4 10 8 10.4 8 11V15H10V12H14V14.5L17.5 11L14 7.5V10ZM12 1C5.9 1 1 5.9 1 12C1 18.1 5.9 23 12 23C18.1 23 23 18.1 23 12C23 5.9 18.1 1 12 1ZM19.73 12.58L12.54 19.8C12.19 20.07 11.75 20.07 11.39 19.8L4.2 12.58C3.93 12.22 3.93 11.78 4.2 11.42L11.39 4.2C11.74 3.93 12.18 3.93 12.54 4.2L19.73 11.42C20.09 11.69 20.09 12.22 19.73 12.58Z" fill="#323232"/>
</g>
<defs>
<clipPath id="clip0_147_5748">
<rect width="24" height="24" fill="white"/>
</clipPath>
</defs>
</svg>
